X:1
T:Flowers of the Valley
M:4/4
L:1/8
K:G
 D2 DD A2A-B| c2 B2 A2 z2| D2 D2 A2 AB| cc B2 A2 z2| D2 FG A2 GF| E4 D2 z A|\
 A3 A A3 A| A3 A A2 GF| E4 D2 z2| d3 d c3 B| AB cB A2 z2| D2 FG A2 GF|\
 E4 D2 z2|
